!!!COM: nicki-minaj
!!!OTL: turn-me-on
!!!RNB: hooktheoryid: RZwxKWLVxed
**kern	**text
*clefG2	*
*k[b-e-a-]	*
*M4/4	*
=1	=1
4r	Cm
8ee-	.
4cc	Bb
8cc	.
8cc	.
[8b-	Ab
=2	=2
8b-]	Ab
8b-	.
8b-	.
8g	.
8b-	.
8cc	.
4cc	.
=3	=3
4r	Ab
8ee-	.
4cc	Bb
8cc	.
8cc	.
[8b-	Cm
=4	=4
8b-]	Cm
8b-	.
8b-	.
8g	.
8b-	.
8cc	.
4cc	.
=5	=5
4r	Cm
8ee-	.
4cc	Bb
8cc	.
8cc	.
[8b-	Ab
=6	=6
8b-]	Ab
8b-	.
8b-	.
8g	.
8b-	.
8cc	.
4cc	.
=7	=7
8b-	Ab
8cc	.
[8ccL	.
8cc]J	Bb
8b-	.
8cc	.
[8ccL	.
8cc]J	Cm
=8	=8
8b-	Cm
8cc	.
8cc	.
8b-	.
8b-	.
8cc	.
4cc	.
=9	=9
1r	.
*-	*-